X:1
T:D Major Samuel Babcock, 1803
T:Anne Steele, 1760 Communion with Christ at His Table 88. 88. (L. M.)
T:Menotomy
T:Transcribed from The Middlesex Harmony, 1803.
%%score [ 1 2 3 ]
L:1/8
Q:1/4=120
M:2/4
K:D
V:1 treble nm="Tr." snm="Tr."
V:2 treble-8 nm="T." snm="T."
V:3 bass nm="B." snm="B."
V:1
"^2.  Yet    while   a  – round   his     board we meet.  And   wor – ship      at          his   glorious  feet;     O    let  our warm     af  – fec – tions""^3.  Let   faith    our    fee   –  ble      sen – ses  aid,     To      see       thy      wondrous  love displayed,    Thy broken flesh,   thy    blee – ding""^1. To       Je   –   sus,   our      ex   –   al  –  ted Lord,  Dear  name,  by         heav'n and  earth  adored!   Fain would our hearts and voi–ces" d2 | %1
 A3 d | d3 B | A2 A2 | A3 d | cd ed | c3 f | e2 d2 | c4 | d2 dd | d3 B | B2 gf | %12
"^1.  raise   A    cheerful      song    of      sacred   praise.              But  all          the   notes which mor – tals   know,  Are weak and lan  – gui –""^2.  move  In   glad  re  –   turns   of     grateful   love.                 Yes,  Lord,    we    love   and     we        a   –   dore,   But long  to   know  and""^3.  veins, Thy dreadful    a    –   go   –  ni–zing  pains.              Let   hum  –  ble    pe   –  ni  –   ten  –  tial     woe,   With  painful,  pleasing"{f} e3 a | %13
 f2 d2 | B3 G | A2 c2 | d4 |: z2 A2 | d3 A | B3 B | AB AG | F2 A2 | d2 A2 | B3 A | %24
"^1.  –shing,   and              low;      Far,   far  a   –   bove   our   hum – ble       songs,   The  theme  de – mands  im – mor – tal   tongues.""^2.   l ove       thee           more;    And  while we  taste   the    bread  and      wine,     De – sire     to      feed      on     joys    di  –  vine.""^3.   an   –     guish          flow,      And  thy  for – gi  –  ving   smiles  im   –  part       Life,  hope,  and  joy,        to          eve–ry   heart." GF GA/B/ | %25
{B} A3 A | d2 B2 | B3 A | Bc d2 |{d} c3 A | d2 e2 | f2 ge | d2 c2 | d4 :| %34
V:2
"^1. To       Je   –   sus,   our      ex   –   al  –  ted Lord,  Dear  name,  by         heav'n and  earth  adored!   Fain would our hearts and voi–ces""^2.  Yet    while   a  – round   his     board we meet.  And   wor – ship      at          his   glorious  feet;     O    let  our warm     af  – fec – tions""^3.  Let   faith    our    fee   –  ble      sen – ses  aid,     To      see       thy      wondrous  love displayed,    Thy broken flesh,   thy    blee – ding" A2 | %1
 d3 A | B3 G | A2 c2 | d3 d | ed cd | e3 d | c2 B2 | A4 | B2 BB | B3 d | e2 ed | %12
"^1.  raise   A    cheerful      song    of      sacred   praise.""^2.  move  In   glad  re  –   turns   of     grateful   love.""^3.  veins, Thy dreadful    a    –   go   –  ni–zing  pains."{d} c3 A | %13
 d2 d2 | d3 g | f2 e2 | d4 |: z4 | z4 | z4 | z4 | z4 | z4 | z4 | z4 | %25
 z2 z"^1.  Far,   far  a   –   bove   our   hum – ble       songs,   The  theme  de – mands  im – mor – tal   tongues.""^2.  And  while we  taste   the    bread  and      wine,     De – sire     to      feed      on     joys    di  –  vine.""^3.  And  thy  for – gi  –  ving   smiles  im   –  part       Life,  hope,  and  joy,        to          eve–ry   heart." A | %26
 d2 d2 | d3 f | g2 f2 |{f} e3 e | f2 ge | d2 ef/g/ | f2 e2 | d4 :| %34
V:3
 D,2 | D,3 D, | G,3 E, | A,2 A,,2 | D,3 D, | A,2 A,2 | A,3 D, | E,2 E,2 | A,,4 | G,2 G,G, | %10
 G,3 B, | E,2 E,2 | A,3 D, | D,2 D,2 | G,3 E, | A,2 A,2 | D,4 |: z4 | z4 | z4 | z4 | z4 | z4 | z4 | %24
 z4 | z2 z A, | D2 B,2 | G,3 F, | E,2 D,2 | A,3 A, | F,2 A,2 | D2 G,2 | A,2 [A,,A,]2 | D,4 :| %34

